!!!COM: Louise Reichardt
!!!CNT: Deutsch
!!!TXO: Deutsch
!!!OTL: Aus Ariels Offenbarungen
!!!LYR: von Arnim
!!!OPR: 
!!!OPS: No opus information available
!!!ONM: No. 6
!!!ENC: Ben Fuhrman
!!!YOR: Louise Reichardt: Songs
!!!YOR: New York, Da Capo Press, 1981
!!!ODT: 1800 - 1826
!!NB: Only vocal melody encoded.
!!NB: First instance of melodic material only encoded.
!!created: 2/17/10 2:33PM
!!proofed and posted: 2/17/10 2:33PM
**kern	**silbe
*clef G2	*
*k[b-]	*
*M2/4	*
*MM[Innig]	*
=1	=1
{4cc	{li-
4a	-lie
=2	=2
(ccq	fieh'
4b-)	|
4g	mich
=3	=3
4a	Thau
ccq	um
4b-	|
=4	=4
8a	-blinkt
8g	dich,
4r	.
=5	=5
4g	du
4g	bist
=6	=6
4a-	trau-
4a-	-rig,
=7	=7
8g	bei
8cc	dir
8cc	fu2hl'-
8b-	-ich
=8	=8
b-q	Lei-
4a-	|
4g}	-den!}
=9	=9
{4an	{ich
4b-	bin
=10	=10
8.cc	fro2h-
16ff	|
8cc	-lich,
8r	.
=11	=11
16cc	Ro-
16ff	|
16aa	|
16gg	|
16ff	|
16ee	|
16dd	-se
16cc	|
=12	=12
8.cc	kenn
16ff	|
8cc	mich
8r	.
=13	=13
4dd	duf-
4cc	-te
=14	=14
8.ff	se-
16ee	|
8ee	-lig
8r	.
=15	=15
16ff	bei
16aa	|
16ee	dir
16ff	|
16cc#	fu2hl'-
16dd	|
16b-	-ich
16g	|
=16	=16
(4f	Freu
aq	|
4g)	|
=17	=17
8f}	-den.}
8r	.
{8.g	{Ro-
16c	-sen
=18	=18
8.a	Li-
16f	-lien,
8.g	Freu-
16c	-den,
=19	=19
8.a	Lei-
16f	-den
8.a	blu2-
16f	-hen
=20	=20
8.b-	bey-
16f	-de
8.cc	mei-
16f	-nem
=21	=21
[4dd	Kran-
16dd]	|
16a	|
16b-	|
16g	-ze
=22	=22
(4f	bey-
aq	|
4g)	|
=23	=23
4f}	-de.}
4r	.
==	==
*-	*-
